icon-themes/sifr_svg/cmd/lc_exportdialog.svg

<svg viewBox="0 0 24 24" xmlns="http://www.w3.org/2000/svg"><path d="m3 2v21h16.871094l-2-2h-12.871094v-17h8v5h5 2v-1l-6-6zm15.337891 8.060547.232421.238281c1.492018 1.519937 2.001954 3.141913 2.001954 4.816406v2.328125l.210937.210938 1.935547-1.935547.28125-.28125v-.875l-.28125-.28125-4-4c-.106402-.106385-.239086-.174744-.380859-.220703zm-2.337891.939453v1.503906c.628416.471311.998772 1.210576 1 1.996094 0 1.380712-1.119288 2.5-2.5 2.5-.786206-.000614-1.526324-.371035-1.998047-1h-1.501953v1.857422c1.371429 1.321851 2.804414 1.714844 4.115234 1.714844h2.742188l3.427734 3.427734h1.714844v-1.714844l-3.427734-3.427734v-2.742188c0-1.511964-.368607-2.743805-1.714844-4.115234zm-7 3v2h1v-1h3.001953l.300781.400391c.283558.378077.72467.59924 1.197266.599609.839612 0 1.498964-.658719 1.5-1.498047-.000273-.174953-.040114-.341862-.097656-.501953z" fill="#555753"/></svg>

<svg xmlns="http://www.w3.org/2000/svg" viewBox="0 0 24 24">
  <path
     style="fill:#555753"
     d="M 3 2 L 3 23 L 19.871094 23 L 17.871094 21 L 5 21 L 5 4 L 13 4 L 13 9 L 18 9 L 20 9 L 20 8 L 14 2 L 3 2 z M 18.337891 10.060547 L 18.570312 10.298828 C 20.06233 11.818765 20.572266 13.440741 20.572266 15.115234 L 20.572266 17.443359 L 20.783203 17.654297 L 22.71875 15.71875 L 23 15.4375 L 23 14.5625 L 22.71875 14.28125 L 18.71875 10.28125 C 18.612348 10.174865 18.479664 10.106506 18.337891 10.060547 z M 16 11 L 16 12.503906 C 16.628416 12.975217 16.998772 13.714482 17 14.5 C 17 15.880712 15.880712 17 14.5 17 C 13.713794 16.999386 12.973676 16.628965 12.501953 16 L 11 16 L 11 17.857422 C 12.371429 19.179273 13.804414 19.572266 15.115234 19.572266 L 17.857422 19.572266 L 21.285156 23 L 23 23 L 23 21.285156 L 19.572266 17.857422 L 19.572266 15.115234 C 19.572266 13.60327 19.203659 12.371429 17.857422 11 L 16 11 z M 9 14 L 9 16 L 10 16 L 10 15 L 13.001953 15 L 13.302734 15.400391 C 13.586292 15.778468 14.027404 15.999631 14.5 16 C 15.339612 16 15.998964 15.341281 16 14.501953 C 15.999727 14.327 15.959886 14.160091 15.902344 14 L 9 14 z "
     />
</svg>
